X:1
T:Feelin' Groovy
T:The 59th Street Bridge song
T:(Feeling groovy)
T:Paul Simon
C:Paul Simon
Z:All Rights Reserved
L:1/4
Q:1/4=60
M:4/4
K:C
V:1 treble 
%%MIDI program 4
V:1
"F""_Rock" z A"C" G3/2 G/ |"Dm" F G"C" E2 |"F" C A/F/"C" G E |"Dm" G G"C" c G | %4
w: Slow down you|move too fast|You got to make the|morn- ing last Just|
"F" z A/F/"C" G3/2 E/ |"Dm" F G"C" E2 |"F" z (3A/A/F/"C" G E |"Dm" G G"C" e c- |"F" c4- |"C" c4 | %10
w: kick- in down the|cob- ble stones|look- in for fun and|feel- in groov- y|||
"F" z A/A/"C" G E |"Dm" z F/D/"C" E G |"F" C A/F/"C" G E |"Dm" G G"C" c G |"F" z A/F/"C" G G | %15
w: Hel- lo lamp- post|what cha know- in|I've come to watch your|flow- ers grow- in|aint- cha got no|
"Dm" F G"C" E2 |"F" z A/F/"C" G c |"Dm" c c"C" e c- |"F" c4- |"Dm" c2"C" z G |"F" A/A/ A"C" G E | %21
w: rhymes for me|doot- in doo- doo|feel- in groov- y||* Got|no deeds to do no|
"Dm" F/F/F/D/"C" E C |"F" e d/c/"C" e d/c/ |"Dm" c G/F/"C" E F/G/ |"F" A F/A/"C" c G/c/ | %25
w: prom- is- es to keep I'm|dap- pled and drow- sy and|read- y to sleep let the|morn- ing time drop all its|
"Dm" e/d/ c"C" G2 |"F" z A/F/"C" G E |"Dm" G3/2 G/"C" e c- |"F" c4- |"C" c4 |] %30
w: pet- als on me|Life I love you|all is groov- y.-|||

